svgs/sharp-solid/hanukiah.svg

<svg xmlns="http://www.w3.org/2000/svg" viewBox="0 0 640 512"><!--! Font Awesome Pro 6.6.0 by @fontawesome - https://fontawesome.com License - https://fontawesome.com/license (Commercial License) Copyright 2024 Fonticons, Inc. --><path d="M316.1 6c1.6-2.4 3-4.5 3.9-6c.9 1.6 2.3 3.6 3.9 6C331.2 17.1 344 36.3 344 56c0 13.3-10.7 24-24 24s-24-10.7-24-24c0-19.7 12.8-38.9 20.1-50zM28.1 54c1.6-2.4 3-4.5 3.9-6c.9 1.6 2.3 3.6 3.9 6c0 0 0 0 0 0C43.2 65.1 56 84.3 56 104c0 13.3-10.7 24-24 24s-24-10.7-24-24C8 84.3 20.8 65.1 28.1 54zM112 48c.9 1.6 2.3 3.6 3.9 6c0 0 0 0 0 0c7.4 11.1 20.1 30.3 20.1 50c0 13.3-10.7 24-24 24s-24-10.7-24-24c0-19.7 12.8-38.9 20.1-50c1.6-2.4 3-4.5 3.9-6zm60.1 6c1.6-2.4 3-4.5 3.9-6c.9 1.6 2.3 3.6 3.9 6c0 0 0 0 0 0c7.4 11.1 20.1 30.3 20.1 50c0 13.3-10.7 24-24 24s-24-10.7-24-24c0-19.7 12.8-38.9 20.1-50zM240 48c.9 1.6 2.3 3.6 3.9 6c0 0 0 0 0 0c7.4 11.1 20.1 30.3 20.1 50c0 13.3-10.7 24-24 24s-24-10.7-24-24c0-19.7 12.8-38.9 20.1-50c1.6-2.4 3-4.5 3.9-6zm156.1 6c1.6-2.4 3-4.5 3.9-6c.9 1.6 2.3 3.6 3.9 6c7.4 11.1 20.1 30.3 20.1 50c0 13.3-10.7 24-24 24s-24-10.7-24-24c0-19.7 12.8-38.9 20.1-50zM528 48c.9 1.6 2.3 3.6 3.9 6c7.4 11.1 20.1 30.3 20.1 50c0 13.3-10.7 24-24 24s-24-10.7-24-24c0-19.7 12.8-38.9 20.1-50c1.6-2.4 3-4.5 3.9-6zm-67.9 6c1.6-2.4 3-4.5 3.9-6c.9 1.6 2.3 3.6 3.9 6c7.4 11.1 20.1 30.3 20.1 50c0 13.3-10.7 24-24 24s-24-10.7-24-24c0-19.7 12.8-38.9 20.1-50zM608 48c.9 1.6 2.3 3.6 3.9 6c7.4 11.1 20.1 30.3 20.1 50c0 13.3-10.7 24-24 24s-24-10.7-24-24c0-19.7 12.8-38.9 20.1-50c1.6-2.4 3-4.5 3.9-6zM352 112l0 32 0 176 224 0 0-128 0-32 64 0 0 32 0 160 0 32-32 0-256 0 0 64 128 0 32 0 0 64-32 0-160 0-160 0-32 0 0-64 32 0 128 0 0-64L32 384 0 384l0-32L0 192l0-32 64 0 0 32 0 128 224 0 0-176 0-32 64 0zM128 160l0 16 0 112-32 0 0-112 0-16 32 0zm64 0l0 16 0 112-32 0 0-112 0-16 32 0zm64 0l0 16 0 112-32 0 0-112 0-16 32 0zm160 0l0 16 0 112-32 0 0-112 0-16 32 0zm64 0l0 16 0 112-32 0 0-112 0-16 32 0zm64 0l0 16 0 112-32 0 0-112 0-16 32 0z"/></svg>

<svg xmlns="http://www.w3.org/2000/svg" viewBox="0 0 640 512"><!--! Font Awesome Pro 6.4.2 by @fontawesome - https://fontawesome.com License - https://fontawesome.com/license (Commercial License) Copyright 2023 Fonticons, Inc. --><path d="M316.1 6c1.6-2.4 3-4.5 3.9-6c.9 1.6 2.3 3.6 3.9 6C331.2 17.1 344 36.3 344 56c0 13.3-10.7 24-24 24s-24-10.7-24-24c0-19.7 12.8-38.9 20.1-50zM28.1 54c1.6-2.4 3-4.5 3.9-6c.9 1.6 2.3 3.6 3.9 6l0 0C43.2 65.1 56 84.3 56 104c0 13.3-10.7 24-24 24s-24-10.7-24-24C8 84.3 20.8 65.1 28.1 54zM112 48c.9 1.6 2.3 3.6 3.9 6l0 0c7.4 11.1 20.1 30.3 20.1 50c0 13.3-10.7 24-24 24s-24-10.7-24-24c0-19.7 12.8-38.9 20.1-50c1.6-2.4 3-4.5 3.9-6zm60.1 6c1.6-2.4 3-4.5 3.9-6c.9 1.6 2.3 3.6 3.9 6l0 0c7.4 11.1 20.1 30.3 20.1 50c0 13.3-10.7 24-24 24s-24-10.7-24-24c0-19.7 12.8-38.9 20.1-50zM240 48c.9 1.6 2.3 3.6 3.9 6l0 0c7.4 11.1 20.1 30.3 20.1 50c0 13.3-10.7 24-24 24s-24-10.7-24-24c0-19.7 12.8-38.9 20.1-50c1.6-2.4 3-4.5 3.9-6zm156.1 6c1.6-2.4 3-4.5 3.9-6c.9 1.6 2.3 3.6 3.9 6c7.4 11.1 20.1 30.3 20.1 50c0 13.3-10.7 24-24 24s-24-10.7-24-24c0-19.7 12.8-38.9 20.1-50zM528 48c.9 1.6 2.3 3.6 3.9 6c7.4 11.1 20.1 30.3 20.1 50c0 13.3-10.7 24-24 24s-24-10.7-24-24c0-19.7 12.8-38.9 20.1-50c1.6-2.4 3-4.5 3.9-6zm-67.9 6c1.6-2.4 3-4.5 3.9-6c.9 1.6 2.3 3.6 3.9 6c7.4 11.1 20.1 30.3 20.1 50c0 13.3-10.7 24-24 24s-24-10.7-24-24c0-19.7 12.8-38.9 20.1-50zM608 48c.9 1.6 2.3 3.6 3.9 6c7.4 11.1 20.1 30.3 20.1 50c0 13.3-10.7 24-24 24s-24-10.7-24-24c0-19.7 12.8-38.9 20.1-50c1.6-2.4 3-4.5 3.9-6zM352 112v32V320H576V192 160h64v32V352v32H608 352v64H480h32v64H480 320 160 128V448h32H288V384H32 0V352 192 160H64v32V320H288V144 112h64zM128 160v16V288H96V176 160h32zm64 0v16V288H160V176 160h32zm64 0v16V288H224V176 160h32zm160 0v16V288H384V176 160h32zm64 0v16V288H448V176 160h32zm64 0v16V288H512V176 160h32z"/></svg>
